public/images/icons/re-icons/re-loading.svg

<svg width="22" height="22" viewBox="0 0 22 22" fill="none" xmlns="http://www.w3.org/2000/svg">
<rect width="22" height="22" fill="white"/>
<path d="M8.93447 18.7095C8.401 18.5666 7.85266 18.8831 7.70972 19.4166C7.56678 19.9501 7.88336 20.4984 8.41683 20.6414L8.93447 18.7095ZM13.066 3.2905C17.3238 4.43138 19.8506 8.80791 18.7097 13.0658L20.6416 13.5834C22.0683 8.25862 18.9084 2.78542 13.5836 1.35865L13.066 3.2905ZM3.29072 8.93425C4.43161 4.67641 8.80814 2.14961 13.066 3.2905L13.5836 1.35865C8.25884 -0.0681212 2.78564 3.09183 1.35887 8.41661L3.29072 8.93425ZM8.41683 20.6414C13.7416 22.0681 19.2148 18.9082 20.6416 13.5834L18.7097 13.0658C17.5688 17.3236 13.1923 19.8504 8.93447 18.7095L8.41683 20.6414Z" fill="#EDF6FF"/>
<path d="M11 3.01855C11.5523 3.01855 12 2.57084 12 2.01855C12 1.46627 11.5523 1.01855 11 1.01855V3.01855ZM11 18.9815C6.59198 18.9815 3.01855 15.4081 3.01855 11H1.01855C1.01855 16.5126 5.48741 20.9815 11 20.9815V18.9815ZM18.9815 11C18.9815 15.4081 15.4081 18.9815 11 18.9815V20.9815C16.5126 20.9815 20.9815 16.5126 20.9815 11H18.9815ZM11 1.01855C5.48741 1.01855 1.01855 5.48741 1.01855 11H3.01855C3.01855 6.59198 6.59198 3.01855 11 3.01855V1.01855Z" fill="url(#paint0_linear_1014_22281)"/>
<defs>
<linearGradient id="paint0_linear_1014_22281" x1="13.4949" y1="6.01032" x2="19.9815" y2="11" gradientUnits="userSpaceOnUse">
<stop stop-color="#0084FF"/>
<stop offset="1" stop-color="#0084FF" stop-opacity="0"/>
</linearGradient>
</defs>
</svg>

<svg fill="none" viewBox="0 0 22 22"><path fill="#fff" d="M0 0h22v22H0z"/><path fill="#EDF6FF" d="M8.934 18.71a1 1 0 10-.517 1.931l.517-1.931zm4.132-15.42a7.981 7.981 0 015.644 9.776l1.932.517C22.068 8.26 18.908 2.785 13.584 1.36l-.518 1.932zM3.291 8.934a7.981 7.981 0 019.775-5.643l.518-1.932C8.259-.068 2.786 3.092 1.359 8.417l1.932.517zm5.126 11.707c5.325 1.427 10.798-1.733 12.225-7.058l-1.932-.517a7.981 7.981 0 01-9.776 5.643l-.517 1.932z"/><path fill="url(#paint0_linear_1014_22281)" d="M11 3.019a1 1 0 100-2v2zm0 15.963A7.981 7.981 0 013.019 11h-2c0 5.513 4.468 9.982 9.981 9.982v-2zM18.982 11A7.981 7.981 0 0111 18.982v2c5.513 0 9.982-4.47 9.982-9.982h-2zM11 1.019c-5.513 0-9.981 4.468-9.981 9.981h2A7.981 7.981 0 0111 3.019v-2z"/><defs><linearGradient id="paint0_linear_1014_22281" x1="13.495" x2="19.982" y1="6.01" y2="11" gradientUnits="userSpaceOnUse"><stop stop-color="#0084FF"/><stop offset="1" stop-color="#0084FF" stop-opacity="0"/></linearGradient></defs></svg>
